X:1
T:Title
%%score { 1 | ( 2 3 ) }
L:1/8
Q:1/4=126
M:6/4
K:F
V:1 treble nm="Grand Piano"
V:2 bass 
V:3 bass 
V:1
 [FA]4 [GB]2 [Ac]4 [FA]2 | [Ff]4 [Fd]2 c4 A2 | F4 G2 A4 [CGB]2 | [CAc]4 [CFA]2 [CEG]6 | %4
w: R.~E.~Hudson * * *||||
 [CFA]4 [CGB]2 [CAc]4 [CFA]2 | [DFf]4 [Fd]2 c4 A2 | F4 G2 A2 c2 [CFA]2 | [CEA]4 [B,EG]2 [A,F]6 | %8
w: ||||
 A4 B2 c6 | d4 d2 c6 | [Af]4 d2 c4 F2 | [FA]4 [EG]2 F6 |] %12
w: ||||
V:2
 [F,C]4 [F,C]2 [F,C]4 [F,C]2 | [B,,D]4 [B,,B,]2 [F,A,F]4 [F,CF]2 | [F,A,]4 [F,B,F]2 [F,CF]4 F,2 | %3
 F,4 F,2 C,6 | F,4 F,2 F,4 F,2 | B,,4 [B,,B,]2 [F,A,F]4 [F,CF]2 | z6 .C6 | C,4 C,2 F,6 | F4 G2 A6 | %9
 B4 B2 A6 | [F,D]4 [F,B,F]2 [F,A,F]4 [F,A,]2 | [C,C]4 [C,B,]2 [F,A,]6 |] %12
V:3
 x12 | x12 | x12 | x12 | x12 | x12 | [F,A,]4 [F,B,F]2 [F,F]2- [F,A,F]2 F,2 | x12 | x12 | x12 | %10
 x12 | x12 |] %12

